X:1
T:Demented Dog, The
C:Larry Edelman
L:1/8
M:6/8
I:linebreak $
K:D
V:1 treble
V:1
"D" A,DA,"G" B,DB, | "A"CEC"D" DAB | "C"=cAF GFG | EFG "A7"AB^c |$
"D" dcd AGF | dAF"G" G3 |"D" AdA cAF |  "A"EDC"D" D3 ::$
 "D" A,DD "G" B,DD | "D" A,DD "G" B,DD | "D" A,DD "G" B,DD | "D" FDF "A7"EDB, |$
 "D" A,DD "G" B,DD | "D" A,DD "G" B,DD | "D" AdA cAF |  "A"EDC "D" D3 |]
